img/philosophy-icon2.svg

<svg width="100" height="100" viewBox="0 0 100 100" fill="none" xmlns="http://www.w3.org/2000/svg">
<path d="M83.4296 29.5514C85.3593 30.3421 86.6078 27.528 84.7578 26.5655C69.9609 10.8624 56.8296 4.04519 45.689 6.32488C34.2515 8.66082 29.0265 19.7389 27.9109 22.4343C23.2156 24.8624 20.1921 27.3452 19.939 27.5577C18.3921 28.8733 20.3656 31.2608 21.9468 29.9483C22.0015 29.903 24.5718 27.7874 28.6406 25.5983C32.6062 31.4639 43.4015 39.5936 56.289 35.5718C66.7078 32.6499 80.5906 29.7436 83.4296 29.5514ZM31.4609 24.1936C35.9749 22.1421 41.6953 20.4218 47.7499 20.8343C47.9547 20.8481 48.1602 20.8215 48.3547 20.7559C48.5492 20.6903 48.7289 20.5871 48.8835 20.4521C49.0381 20.3171 49.1646 20.153 49.2557 19.9691C49.3469 19.7852 49.4009 19.5851 49.4148 19.3803C49.4286 19.1756 49.402 18.9701 49.3364 18.7756C49.2709 18.5811 49.1676 18.4014 49.0326 18.2468C48.8976 18.0922 48.7335 17.9657 48.5496 17.8746C48.3657 17.7834 48.1657 17.7294 47.9609 17.7155C42.2734 17.3358 36.9343 18.6155 32.4656 20.3655C34.7406 16.4999 39.1999 10.8296 46.3374 9.38113C55.8843 7.44832 67.4156 13.2952 80.6281 26.7764C73.3562 28.0264 62.1828 30.6718 55.4437 32.5639C42.0921 36.3046 34.0968 27.7218 31.4609 24.1936ZM90.4343 38.4374C90.6531 36.4108 87.4859 35.8358 87.1953 37.9874C85.5687 40.3264 75.8546 50.8389 67.9187 58.3624C56.1234 69.5389 60.1249 83.2218 61.8062 87.5108C57.8296 89.903 54.6953 91.0358 54.6281 91.0593C52.989 91.5968 53.4234 94.1343 55.1437 94.0983C56.2593 93.9577 59.0656 92.7796 64.1234 89.7936C64.9734 89.9249 66.5812 90.1218 68.6515 90.1218C93.3812 89.5436 97.9921 67.103 90.4343 38.4374ZM84.4296 80.9264C79.4968 86.1499 72.5578 87.0202 68.1953 86.9702C72.014 84.0124 75.9015 80.0499 78.5671 74.9077C79.4812 73.0686 76.7687 71.6624 75.7937 73.4702C72.9749 78.9061 68.5484 82.9546 64.4687 85.7936C62.8843 81.5968 59.964 70.2046 70.0671 60.6296C75.1734 55.7952 83.2109 47.5202 88.0671 41.9014C92.4656 60.5905 91.2437 73.7124 84.4296 80.9264ZM45.3718 91.0593C45.3046 91.0358 42.1703 89.903 38.1937 87.5108C39.8749 83.2233 43.8765 69.5389 32.0812 58.3624C24.1453 50.8389 14.4312 40.3264 12.8046 37.9874C12.7673 37.6637 12.6302 37.3595 12.4124 37.1171C12.1946 36.8747 11.9069 36.706 11.589 36.6343C10.5359 36.3936 9.40151 37.3452 9.56557 38.4374C4.11713 59.6905 5.37807 74.7108 13.3171 83.0936C20.4828 90.2374 28.7859 90.6124 35.8765 89.7936C40.9624 92.8186 43.6984 93.8983 44.8578 94.0983C46.5609 94.1155 47.0281 91.6202 45.3718 91.0593ZM15.5703 80.9264C8.75619 73.7124 7.53432 60.5905 11.9328 41.9014C16.7968 47.5311 24.8187 55.7889 29.9328 60.6296C40.0359 70.2046 37.1156 81.5968 35.5312 85.7936C31.4531 82.9561 27.0249 78.9061 24.2062 73.4702C23.2281 71.6624 20.5187 73.0718 21.4328 74.9077C24.0984 80.0499 27.9859 84.0124 31.8046 86.9702C27.4406 87.0202 20.5031 86.1483 15.5703 80.9264Z" fill="#3391AC"/>
</svg>

<svg width="100" height="100" fill="none" xmlns="http://www.w3.org/2000/svg"><path d="M83.43 29.551c1.93.791 3.178-2.023 1.328-2.985C69.96 10.861 56.83 4.046 45.689 6.325 34.251 8.66 29.026 19.739 27.911 22.435c-4.695 2.427-7.719 4.91-7.972 5.123-1.547 1.315.427 3.703 2.008 2.39.055-.045 2.625-2.16 6.694-4.35 3.965 5.866 14.76 13.996 27.648 9.974 10.419-2.922 24.302-5.828 27.14-6.02zm-51.97-5.357c4.515-2.052 10.235-3.772 16.29-3.36a1.563 1.563 0 00.21-3.119c-5.687-.38-11.026.9-15.494 2.65C34.74 16.5 39.2 10.83 46.337 9.382c9.547-1.933 21.079 3.914 34.291 17.395-7.272 1.25-18.445 3.896-25.184 5.788-13.352 3.74-21.347-4.842-23.983-8.37zm58.974 14.243c.22-2.026-2.948-2.601-3.239-.45-1.626 2.34-11.34 12.852-19.276 20.375-11.796 11.177-7.794 24.86-6.113 29.149-3.976 2.392-7.11 3.525-7.178 3.548-1.639.538-1.205 3.075.516 3.04 1.115-.141 3.922-1.32 8.98-4.305.85.13 2.457.328 4.528.328 24.73-.578 29.34-23.019 21.782-51.685zm-6.004 42.49c-4.933 5.223-11.872 6.093-16.235 6.043 3.819-2.958 7.707-6.92 10.372-12.062.914-1.84-1.798-3.246-2.773-1.438-2.82 5.436-7.246 9.485-11.325 12.324-1.585-4.197-4.505-15.59 5.598-25.164 5.106-4.835 13.144-13.11 18-18.729 4.399 18.69 3.177 31.811-3.637 39.025zM45.372 91.058c-.067-.023-3.202-1.156-7.178-3.548 1.68-4.288 5.682-17.972-6.113-29.149-7.936-7.523-17.65-18.036-19.276-20.375a1.571 1.571 0 00-1.216-1.353c-1.053-.24-2.187.711-2.023 1.803C4.117 59.69 5.378 74.71 13.317 83.093c7.166 7.143 15.469 7.518 22.56 6.7 5.085 3.025 7.821 4.104 8.98 4.304 1.704.017 2.171-2.478.515-3.039zM15.57 80.926c-6.814-7.214-8.036-20.336-3.637-39.025 4.864 5.63 12.886 13.888 18 18.729 10.103 9.575 7.183 20.967 5.598 25.164-4.078-2.838-8.506-6.888-11.325-12.324-.978-1.808-3.687-.398-2.773 1.438 2.665 5.142 6.553 9.104 10.372 12.062-4.364.05-11.302-.822-16.235-6.044z" fill="#3391AC"/></svg>
